X:215
T: Humors of Derrycrossane
S: "Learn to Play the Tin Whistle" (Armagh Pipers Club)
Z: B.Black
L: 1/8
M: 9/8
R: slip jig
K: G
d|B3 BdB c2 d|BAG B/c/dB ABc|BAG BdB c2 e|dBG GDG G2 :|
d|g2 g edc Bcd|ecA ABA ABA|1 gfg edc Bcd|gdB GAG G2 :|2\
def gfe def|gbg agf g2||
